mono-glyphs/laptop-w.svg

<svg xmlns="http://www.w3.org/2000/svg" width="1024" height="1024" fill="none" viewBox="0 0 1024 1024">
  <g clip-path="url(#a)">
    <path fill="#fff" d="M189 736c-16.667 0-32.583-3.417-47.75-10.25-15.167-6.833-28.5-16-40-27.5s-20.667-24.833-27.5-40c-6.833-15.167-10.25-31.083-10.25-47.75v-325c0-16.667 3.417-32.583 10.25-47.75 6.833-15.167 16-28.5 27.5-40s24.833-20.667 40-27.5C156.417 163.417 172.333 160 189 160h645c16.667 0 32.583 3.417 47.75 10.25 15.167 6.833 28.5 16 40 27.5s20.667 24.833 27.5 40c6.833 15.167 10.25 31.083 10.25 47.75v325c0 16.667-3.417 32.583-10.25 47.75-6.833 15.167-16 28.5-27.5 40s-24.833 20.667-40 27.5C866.583 732.583 850.667 736 834 736H189Zm642.5-64c9 0 17.333-1.667 25-5 7.667-3.333 14.417-7.917 20.25-13.75s10.417-12.583 13.75-20.25 5-16 5-25V288c0-8.667-1.667-16.917-5-24.75-3.333-7.833-7.917-14.667-13.75-20.5s-12.667-10.417-20.5-13.75-16.083-5-24.75-5h-640c-9 0-17.333 1.667-25 5-7.667 3.333-14.417 7.917-20.25 13.75S135.833 255.333 132.5 263s-5 16-5 25v320c0 9 1.667 17.417 5 25.25 3.333 7.833 7.833 14.583 13.5 20.25s12.417 10.167 20.25 13.5 16.25 5 25.25 5h640Zm-800 192c-8.667 0-16.167-3.167-22.5-9.5-6.333-6.333-9.5-13.833-9.5-22.5s3.167-16.167 9.5-22.5c6.333-6.333 13.833-9.5 22.5-9.5h960c8.67 0 16.17 3.167 22.5 9.5 6.33 6.333 9.5 13.833 9.5 22.5s-3.17 16.167-9.5 22.5c-6.33 6.333-13.83 9.5-22.5 9.5h-960Z"/>
  </g>
  <defs>
    <clipPath id="a">
      <path fill="#fff" d="M0 0h1024v1024H0z"/>
    </clipPath>
  </defs>
</svg>

<svg width="1024" height="1024" viewBox="0 0 1024 1024" fill="none" xmlns="http://www.w3.org/2000/svg">
<g clip-path="url(#clip0_47_1345)">
<mask id="mask0_47_1345" style="mask-type:luminance" maskUnits="userSpaceOnUse" x="-1" y="160" width="1025" height="704">
<path d="M1023.5 160H-0.5V864H1023.5V160Z" fill="white"/>
</mask>
<g mask="url(#mask0_47_1345)">
<path d="M189 736C172.333 736 156.417 732.583 141.25 725.75C126.083 718.917 112.75 709.75 101.25 698.25C89.75 686.75 80.5833 673.417 73.75 658.25C66.9167 643.083 63.5 627.167 63.5 610.5V285.5C63.5 268.833 66.9167 252.917 73.75 237.75C80.5833 222.583 89.75 209.25 101.25 197.75C112.75 186.25 126.083 177.083 141.25 170.25C156.417 163.417 172.333 160 189 160H834C850.667 160 866.583 163.417 881.75 170.25C896.917 177.083 910.25 186.25 921.75 197.75C933.25 209.25 942.417 222.583 949.25 237.75C956.083 252.917 959.5 268.833 959.5 285.5V610.5C959.5 627.167 956.083 643.083 949.25 658.25C942.417 673.417 933.25 686.75 921.75 698.25C910.25 709.75 896.917 718.917 881.75 725.75C866.583 732.583 850.667 736 834 736H189ZM831.5 672C840.5 672 848.833 670.333 856.5 667C864.167 663.667 870.917 659.083 876.75 653.25C882.583 647.417 887.167 640.667 890.5 633C893.833 625.333 895.5 617 895.5 608V288C895.5 279.333 893.833 271.083 890.5 263.25C887.167 255.417 882.583 248.583 876.75 242.75C870.917 236.917 864.083 232.333 856.25 229C848.417 225.667 840.167 224 831.5 224H191.5C182.5 224 174.167 225.667 166.5 229C158.833 232.333 152.083 236.917 146.25 242.75C140.417 248.583 135.833 255.333 132.5 263C129.167 270.667 127.5 279 127.5 288V608C127.5 617 129.167 625.417 132.5 633.25C135.833 641.083 140.333 647.833 146 653.5C151.667 659.167 158.417 663.667 166.25 667C174.083 670.333 182.5 672 191.5 672H831.5ZM31.5 864C22.8333 864 15.3333 860.833 9 854.5C2.66667 848.167 -0.5 840.667 -0.5 832C-0.5 823.333 2.66667 815.833 9 809.5C15.3333 803.167 22.8333 800 31.5 800H991.5C1000.17 800 1007.67 803.167 1014 809.5C1020.33 815.833 1023.5 823.333 1023.5 832C1023.5 840.667 1020.33 848.167 1014 854.5C1007.67 860.833 1000.17 864 991.5 864H31.5Z" fill="white"/>
</g>
</g>
<defs>
<clipPath id="clip0_47_1345">
<rect width="1024" height="1024" fill="white"/>
</clipPath>
</defs>
</svg>
